X:0775
T:An Irish Air.
M:6/8
L:1/8
Q:3/8=112
I: :: ||
Z:Jack Campin * www.campin.me.uk * 2009
K:A Dorian
A2A AGE|A2A AGE|GAB cGE|G3 E3 |A2B c2c|BcB G2 G|ABc dcB|c3 c3:|
c2d e2f|g2a g3 |GAB cGE|G3 E2E|A2B c2c|Bdc BA^G|ABc dcB|c3 c3:|

